X: 006
T: Blind Beggar
B: 204 Favourite Country Dances
N: Published by Straight & Skillern, London ca.1775
F: http://imslp.org/wiki/204_Favourite_Country_Dances_(Various) p.3 #6
Z: 2014 John Chambers <jc:trillian.mit.edu>
M: 2/4
L: 1/8
K: D
%  - - - - - - - - - - - - - - - - - - - - - - - - -
a |\
fddf | a>baf | d>fec | BBB>A |\
d>efg | ab^ge | a>ABd | cAA :|
|: e |\
cAAc | e>fec | d/e/f/g/ f/a/g/f/ | e/d/c/B/ Aa |\
fddf | a>baf | B>dc>e | ddd :|
%  - - - - - - - - - - - - - - - - - - - - - - - - -
%%begintext align
%% Cast off 1 Cu. & lead thro' the bott: cast up
%% 1 Cu. & lead thro the top foot it contrary
%% corners & turn lead outsides
%%endtext

%%sep 1 1 500
%%sep 1 1 500
